X: 1
T: My Darling Asleep
M: 6/8
L: 1/8
R: jig
K: Dmaj
e|fdd cAA|BAG A2G|FAA def|gfg eag|
fdd cAA|BAG A2G|FAA def|gec d2:|
G|FAA B2A|FAA B2A|FAA def|gfg eag|
fdd cAA|BAG A2G|FAA def|gec d2:|
